storage/app/icons/phosphoricons/light/mouse-middle-click-light.svg

<svg xmlns="http://www.w3.org/2000/svg" fill="currentColor" viewBox="0 0 256 256"><path d="M144 18h-32a62.07 62.07 0 0 0-62 62v96a62.07 62.07 0 0 0 62 62h32a62.07 62.07 0 0 0 62-62V80a62.07 62.07 0 0 0-62-62m50 62v26h-44V88a14 14 0 0 0-14-14h-2V30h10a50.06 50.06 0 0 1 50 50m-76 8a2 2 0 0 1 2-2h16a2 2 0 0 1 2 2v48a2 2 0 0 1-2 2h-16a2 2 0 0 1-2-2Zm-6-58h10v44h-2a14 14 0 0 0-14 14v18H62V80a50.06 50.06 0 0 1 50-50m32 196h-32a50.06 50.06 0 0 1-50-50v-58h44v18a14 14 0 0 0 14 14h16a14 14 0 0 0 14-14v-18h44v58a50.06 50.06 0 0 1-50 50"/></svg>

<svg xmlns="http://www.w3.org/2000/svg" viewBox="0 0 256 256" fill="currentColor"><path d="M144,18H112A62.07,62.07,0,0,0,50,80v96a62.07,62.07,0,0,0,62,62h32a62.07,62.07,0,0,0,62-62V80A62.07,62.07,0,0,0,144,18Zm50,62v26H150V88a14,14,0,0,0-14-14h-2V30h10A50.06,50.06,0,0,1,194,80Zm-76,8a2,2,0,0,1,2-2h16a2,2,0,0,1,2,2v48a2,2,0,0,1-2,2H120a2,2,0,0,1-2-2Zm-6-58h10V74h-2a14,14,0,0,0-14,14v18H62V80A50.06,50.06,0,0,1,112,30Zm32,196H112a50.06,50.06,0,0,1-50-50V118h44v18a14,14,0,0,0,14,14h16a14,14,0,0,0,14-14V118h44v58A50.06,50.06,0,0,1,144,226Z"/></svg>
